X: 12
T: Jenny Lind
R: polka
M: 2/4
L: 1/8
K: Dmaj
|:FA GB|Af fe/f/|ge e/f/g/e/|fd d2|
FA GB|Af fe/f/|ge e/f/g/e/|fd d2:|
Bc|:dB B/c/d/B/|Af fe/f/|ge e/f/g/e/|fd d2|
dc BA|Af fe/f/|ge e/f/g/e/|fd d2:|


Tune 4883	Setting 17315

